;FLAVOR:RepRap
;TIME:24053
;Generated with Cura_SteamEngine 2.3.1
M104 S210
M109 S210
; -- START GCODE --
G21                     ;set units to millimetres
G90                     ;set to absolute positioning
M106 S0                 ;set fan speed to zero (turned off)
G28 X0 Y0               ;move to the X/Y origin (Home)
G28 Z0                  ;move to the Z origin (Home)
G1 Z15.0 F1200          ;move Z to position 15.0 mm
G92 E0                  ;zero the extruded length
G1 E20 F200             ;extrude 20mm of feed stock
G92 E0                  ;zero the extruded length again
G1 F7200                ;set feedrate to 120 mm/s
; -- end of START GCODE --
;LAYER_COUNT:240
;LAYER:0
M107
G1 F1500 E-6.5
G0 F3600 X107.563 Y75.781 Z.2
;TYPE:SKIRT
G1 F1500 E0
G1 F1200 X109.316 Y73.468 E0.09653
G1 X109.653 Y73.053 E0.11431
G1 X111.56 Y70.866 E0.21082
G1 X111.924 Y70.477 E0.22854
G1 X113.976 Y68.425 E0.32506
G1 X114.365 Y68.061 E0.34278
G1 X116.552 Y66.154 E0.43929
G1 X116.967 Y65.817 E0.45707
G1 X119.28 Y64.064 E0.5536
G1 X119.714 Y63.757 E0.57128
G1 X122.142 Y62.165 E0.66784
G1 X122.594 Y61.89 E0.68544
G1 X125.123 Y60.467 E0.78196
G1 X125.599 Y60.22 E0.79979
G1 X128.218 Y58.975 E0.89624
G1 X128.704 Y58.765 E0.91385
G1 X131.405 Y57.699 E1.01043
G1 X131.911 Y57.519 E1.02829
G1 X134.678 Y56.642 E1.12484
G1 X135.185 Y56.5 E1.14235
G1 X138.003 Y55.812 E1.23883
G1 X138.528 Y55.702 E1.25667
G1 X141.388 Y55.209 E1.3532
G1 X141.918 Y55.137 E1.37099
G1 X144.806 Y54.841 E1.46755
G1 X145.332 Y54.805 E1.48508
G1 X148.231 Y54.705 E1.58156
G1 X148.769 Y54.705 E1.59945
G1 X151.668 Y54.805 E1.69593
G1 X152.194 Y54.841 E1.71347
G1 X155.082 Y55.137 E1.81003
G1 X155.612 Y55.209 E1.82782
G1 X158.472 Y55.702 E1.92434
G1 X158.997 Y55.812 E1.94218
G1 X161.815 Y56.5 E2.03866
G1 X162.322 Y56.642 E2.05618
G1 X165.089 Y57.519 E2.15272
G1 X165.595 Y57.699 E2.17058
G1 X168.296 Y58.765 E2.26716
G1 X168.782 Y58.975 E2.28477
G1 X171.401 Y60.22 E2.38122
G1 X171.877 Y60.467 E2.39906
G1 X174.406 Y61.89 E2.49557
G1 X174.858 Y62.165 E2.51317
G1 X177.286 Y63.757 E2.60974
G1 X177.72 Y64.063 E2.6274
G1 X180.032 Y65.815 E2.72388
G1 X180.447 Y66.153 E2.74168
G1 X182.634 Y68.06 E2.83819
G1 X183.023 Y68.424 E2.85591
G1 X185.075 Y70.476 E2.95243
G1 X185.439 Y70.865 E2.97015
G1 X187.346 Y73.052 E3.06666
G1 X187.683 Y73.467 E3.08444
G1 X189.436 Y75.78 E3.18097
G1 X189.743 Y76.214 E3.19865
G1 X191.335 Y78.642 E3.29522
G1 X191.61 Y79.094 E3.31281
G1 X193.033 Y81.623 E3.40933
G1 X193.28 Y82.099 E3.42717
G1 X194.525 Y84.718 E3.52362
G1 X194.735 Y85.203 E3.54119
G1 X195.801 Y87.903 E3.63774
G1 X195.981 Y88.41 E3.65564
G1 X196.858 Y91.177 E3.75218
G1 X197.001 Y91.685 E3.76973
G1 X197.689 Y94.504 E3.86624
G1 X197.798 Y95.028 E3.88405
G1 X198.291 Y97.887 E3.98054
G1 X198.363 Y98.417 E3.99833
G1 X198.659 Y101.305 E4.09489
G1 X198.695 Y101.831 E4.11242
G1 X198.795 Y104.73 E4.2089
G1 X198.795 Y105.268 E4.2268
G1 X198.695 Y108.168 E4.32331
G1 X198.659 Y108.694 E4.34084
G1 X198.363 Y111.582 E4.4374
G1 X198.291 Y112.112 E4.45519
G1 X197.798 Y114.972 E4.55172
G1 X197.688 Y115.497 E4.56956
G1 X197 Y118.315 E4.66604
G1 X196.858 Y118.822 E4.68355
G1 X195.981 Y121.589 E4.78009
G1 X195.802 Y122.095 E4.79795
G1 X194.737 Y124.794 E4.89445
G1 X194.525 Y125.28 E4.91209
G1 X193.279 Y127.901 E5.00861
G1 X193.033 Y128.377 E5.02643
G1 X191.61 Y130.906 E5.12295
G1 X191.335 Y131.357 E5.14052
G1 X189.744 Y133.784 E5.23704
G1 X189.437 Y134.219 E5.25475
G1 X187.684 Y136.532 E5.35128
G1 X187.347 Y136.947 E5.36906
G1 X185.44 Y139.134 E5.46557
G1 X185.076 Y139.523 E5.48328
G1 X183.024 Y141.575 E5.5798
G1 X182.635 Y141.939 E5.59752
G1 X180.448 Y143.846 E5.69403
G1 X180.033 Y144.183 E5.71181
G1 X177.72 Y145.936 E5.80834
G1 X177.286 Y146.243 E5.82602
G1 X174.858 Y147.835 E5.92259
G1 X174.406 Y148.11 E5.94019
G1 X171.877 Y149.533 E6.0367
G1 X171.401 Y149.78 E6.05454
G1 X168.782 Y151.025 E6.15099
G1 X168.296 Y151.235 E6.1686
G1 X165.595 Y152.301 E6.26518
G1 X165.089 Y152.481 E6.28304
G1 X162.322 Y153.358 E6.37958
G1 X161.815 Y153.5 E6.3971
G1 X158.997 Y154.188 E6.49358
G1 X158.472 Y154.298 E6.51142
G1 X155.612 Y154.791 E6.60794
G1 X155.082 Y154.863 E6.62573
G1 X152.194 Y155.159 E6.72229
G1 X151.668 Y155.195 E6.73983
G1 X148.769 Y155.295 E6.83631
G1 X148.231 Y155.295 E6.8542
G1 X145.332 Y155.195 E6.95068
G1 X144.806 Y155.159 E6.96821
G1 X141.918 Y154.863 E7.06477
G1 X141.388 Y154.791 E7.08256
G1 X138.528 Y154.298 E7.17909
G1 X138.003 Y154.188 E7.19693
G1 X135.185 Y153.5 E7.29341
G1 X134.678 Y153.358 E7.31092
G1 X131.911 Y152.481 E7.40746
G1 X131.405 Y152.301 E7.42533
G1 X128.704 Y151.235 E7.52191
G1 X128.218 Y151.025 E7.53952
G1 X125.599 Y149.78 E7.63597
G1 X125.123 Y149.533 E7.6538
G1 X122.594 Y148.11 E7.75032
G1 X122.142 Y147.835 E7.76792
G1 X119.714 Y146.243 E7.86448
G1 X119.28 Y145.936 E7.88216
G1 X116.967 Y144.183 E7.97869
G1 X116.552 Y143.846 E7.99647
G1 X114.365 Y141.939 E8.09298
G1 X113.976 Y141.575 E8.1107
G1 X111.924 Y139.523 E8.20722
G1 X111.56 Y139.134 E8.22494
G1 X109.653 Y136.947 E8.32145
G1 X109.316 Y136.532 E8.33923
G1 X107.563 Y134.219 E8.43576
G1 X107.256 Y133.784 E8.45347
G1 X105.665 Y131.357 E8.54999
G1 X105.39 Y130.906 E8.56756
G1 X103.967 Y128.377 E8.66407
G1 X103.721 Y127.901 E8.6819
G1 X102.475 Y125.28 E8.77842
G1 X102.263 Y124.794 E8.79605
G1 X101.198 Y122.095 E8.89256
G1 X101.019 Y121.589 E8.91041
G1 X100.142 Y118.822 E9.00695
G1 X100 Y118.315 E9.02447
G1 X99.312 Y115.497 E9.12095
G1 X99.202 Y114.972 E9.13879
G1 X98.709 Y112.112 E9.23531
G1 X98.637 Y111.582 E9.2531
G1 X98.341 Y108.694 E9.34966
G1 X98.305 Y108.168 E9.3672
G1 X98.205 Y105.27 E9.46364
G1 X98.205 Y104.732 E9.48154
G1 X98.305 Y101.832 E9.57805
G1 X98.341 Y101.306 E9.59558
G1 X98.637 Y98.418 E9.69214
G1 X98.709 Y97.888 E9.70993
G1 X99.202 Y95.028 E9.80646
G1 X99.312 Y94.503 E9.8243
G1 X100 Y91.685 E9.92078
G1 X100.142 Y91.178 E9.93829
G1 X101.019 Y88.411 E10.03483
G1 X101.198 Y87.905 E10.05269
G1 X102.263 Y85.206 E10.14919
G1 X102.475 Y84.72 E10.16683
G1 X103.721 Y82.099 E10.26335
G1 X103.967 Y81.623 E10.28117
G1 X105.39 Y79.094 E10.37769
G1 X105.665 Y78.643 E10.39526
G1 X107.256 Y76.216 E10.49178
G1 X107.563 Y75.781 E10.50949
G0 F3600 X107.881 Y76.022
G1 F1200 X109.634 Y73.709 E10.60602
G1 X109.955 Y73.316 E10.62289
G1 X111.862 Y71.129 E10.7194
G1 X112.206 Y70.759 E10.73621
G1 X114.258 Y68.707 E10.83273
G1 X114.628 Y68.363 E10.84953
G1 X116.815 Y66.456 E10.94604
G1 X117.208 Y66.135 E10.96292
G1 X119.521 Y64.382 E11.05944
G1 X119.933 Y64.092 E11.0762
G1 X122.361 Y62.5 E11.17277
G1 X122.79 Y62.239 E11.18947
G1 X125.319 Y60.816 E11.28599
G1 X125.771 Y60.582 E11.30292
G1 X128.39 Y59.337 E11.39937
G1 X128.85 Y59.137 E11.41605
G1 X131.551 Y58.071 E11.51263
G1 X132.032 Y57.9 E11.52961
G1 X134.799 Y57.023 E11.62615
G1 X135.28 Y56.888 E11.64277
G1 X138.098 Y56.2 E11.73925
G1 X138.596 Y56.097 E11.75616
G1 X141.456 Y55.604 E11.85269
G1 X141.959 Y55.535 E11.86957
G1 X144.847 Y55.239 E11.96613
G1 X145.346 Y55.204 E11.98277
G1 X148.245 Y55.104 E12.07925
G1 X148.755 Y55.104 E12.09621
G1 X151.654 Y55.204 E12.19269
G1 X152.153 Y55.239 E12.20933
G1 X155.041 Y55.535 E12.30588
G1 X155.544 Y55.604 E12.32277
G1 X158.404 Y56.097 E12.4193
G1 X158.902 Y56.2 E12.43621
G1 X161.72 Y56.888 E12.53269
G1 X162.201 Y57.023 E12.54931
G1 X164.968 Y57.9 E12.64585
G1 X165.449 Y58.071 E12.66283
G1 X168.15 Y59.137 E12.75941
G1 X168.61 Y59.337 E12.77609
G1 X171.229 Y60.582 E12.87254
G1 X171.681 Y60.816 E12.88947
G1 X174.21 Y62.239 E12.98599
G1 X174.639 Y62.5 E13.00269
G1 X177.067 Y64.092 E13.09926
G1 X177.478 Y64.382 E13.11599
G1 X179.79 Y66.134 E13.21247
G1 X180.184 Y66.455 E13.22937
G1 X182.371 Y68.362 E13.32588
G1 X182.741 Y68.706 E13.34268
G1 X184.793 Y70.758 E13.4392
G1 X185.137 Y71.128 E13.45601
G1 X187.044 Y73.315 E13.55252
G1 X187.365 Y73.708 E13.56939
G1 X189.118 Y76.021 E13.66592
G1 X189.408 Y76.433 E13.68268
G1 X191 Y78.861 E13.77925
G1 X191.261 Y79.29 E13.79595
G1 X192.684 Y81.819 E13.89247
G1 X192.918 Y82.271 E13.90939
G1 X194.163 Y84.89 E14.00584
G1 X194.363 Y85.35 E14.02253
G1 X195.429 Y88.05 E14.11908
G1 X195.6 Y88.531 E14.13605
G1 X196.477 Y91.298 E14.2326
G1 X196.612 Y91.779 E14.24921
G1 X197.3 Y94.598 E14.34573
G1 X197.403 Y95.096 E14.36264
G1 X197.896 Y97.955 E14.45913
G1 X197.965 Y98.458 E14.47602
G1 X198.261 Y101.346 E14.57258
G1 X198.296 Y101.845 E14.58922
G1 X198.396 Y104.744 E14.6857
G1 X198.396 Y105.254 E14.70266
G1 X198.296 Y108.154 E14.79917
G1 X198.261 Y108.653 E14.81581
G1 X197.965 Y111.541 E14.91237
G1 X197.896 Y112.044 E14.92925
G1 X197.403 Y114.904 E15.02578
G1 X197.3 Y115.402 E15.04269
G1 X196.612 Y118.22 E15.13917
G1 X196.477 Y118.701 E15.15579
G1 X195.6 Y121.468 E15.25233
G1 X195.429 Y121.948 E15.26928
G1 X194.364 Y124.647 E15.36579
G1 X194.164 Y125.108 E15.3825
G1 X192.918 Y127.729 E15.47902
G1 X192.684 Y128.181 E15.49595
G1 X191.261 Y130.71 E15.59247
G1 X191.001 Y131.138 E15.60912
G1 X189.41 Y133.565 E15.70564
G1 X189.119 Y133.978 E15.72245
G1 X187.366 Y136.291 E15.81898
G1 X187.045 Y136.684 E15.83585
G1 X185.138 Y138.871 E15.93236
G1 X184.794 Y139.241 E15.94917
G1 X182.742 Y141.293 E16.04569
G1 X182.372 Y141.637 E16.06249
G1 X180.185 Y143.544 E16.159
G1 X179.792 Y143.865 E16.17588
G1 X177.479 Y145.618 E16.27241
G1 X177.067 Y145.908 E16.28916
G1 X174.639 Y147.5 E16.38573
G1 X174.21 Y147.761 E16.40243
G1 X171.681 Y149.184 E16.49895
G1 X171.229 Y149.418 E16.51588
G1 X168.61 Y150.663 E16.61233
G1 X168.15 Y150.863 E16.62901
G1 X165.449 Y151.929 E16.72559
G1 X164.968 Y152.1 E16.74257
G1 X162.201 Y152.977 E16.83911
G1 X161.72 Y153.112 E16.85573
G1 X158.902 Y153.8 E16.95221
G1 X158.404 Y153.903 E16.96912
G1 X155.544 Y154.396 E17.06565
G1 X155.041 Y154.465 E17.08253
G1 X152.153 Y154.761 E17.17909
G1 X151.654 Y154.796 E17.19573
G1 X148.755 Y154.896 E17.29221
G1 X148.245 Y154.896 E17.30917
G1 X145.346 Y154.796 E17.40565
G1 X144.847 Y154.761 E17.42229
G1 X141.959 Y154.465 E17.51885
G1 X141.456 Y154.396 E17.53573
G1 X138.596 Y153.903 E17.63226
G1 X138.098 Y153.8 E17.64917
G1 X135.28 Y153.112 E17.74565
G1 X134.799 Y152.977 E17.76227
G1 X132.032 Y152.1 E17.85881
G1 X131.551 Y151.929 E17.87579
G1 X128.85 Y150.863 E17.97237
G1 X128.39 Y150.663 E17.98905
G1 X125.771 Y149.418 E18.0855
G1 X125.319 Y149.184 E18.10243
G1 X122.79 Y147.761 E18.19895
G1 X122.361 Y147.5 E18.21565
G1 X119.933 Y145.908 E18.31222
G1 X119.521 Y145.618 E18.32898
G1 X117.208 Y143.865 E18.4255
G1 X116.815 Y143.544 E18.44238
G1 X114.628 Y141.637 E18.53889
G1 X114.258 Y141.293 E18.55569
G1 X112.206 Y139.241 E18.65221
G1 X111.862 Y138.871 E18.66902
G1 X109.955 Y136.684 E18.76553
G1 X109.634 Y136.291 E18.7824
G1 X107.881 Y133.978 E18.87893
G1 X107.59 Y133.565 E18.89574
G1 X105.999 Y131.138 E18.99226
G1 X105.739 Y130.71 E19.00891
G1 X104.316 Y128.181 E19.10543
G1 X104.082 Y127.729 E19.12236
G1 X102.836 Y125.108 E19.21888
G1 X102.636 Y124.647 E19.2356
G1 X101.571 Y121.948 E19.3321
G1 X101.4 Y121.468 E19.34905
G1 X100.523 Y118.701 E19.44559
G1 X100.388 Y118.22 E19.46221
G1 X99.7 Y115.402 E19.55869
G1 X99.597 Y114.904 E19.5756
G1 X99.104 Y112.044 E19.67213
G1 X99.035 Y111.541 E19.68902
G1 X98.739 Y108.653 E19.78557
G1 X98.704 Y108.154 E19.80221
G1 X98.604 Y105.256 E19.89866
G1 X98.604 Y104.746 E19.91562
G1 X98.704 Y101.846 E20.01213
G1 X98.739 Y101.347 E20.02877
G1 X99.035 Y98.459 E20.12533
G1 X99.104 Y97.956 E20.14221
G1 X99.597 Y95.096 E20.23874
G1 X99.7 Y94.598 E20.25566
G1 X100.388 Y91.78 E20.35214
G1 X100.523 Y91.299 E20.36875
G1 X101.4 Y88.532 E20.46529
G1 X101.571 Y88.052 E20.48224
G1 X102.636 Y85.353 E20.57875
G1 X102.836 Y84.892 E20.59546
G1 X104.082 Y82.271 E20.69198
G1 X104.316 Y81.819 E20.70891
G1 X105.739 Y79.29 E20.80543
G1 X105.999 Y78.862 E20.82209
G1 X107.59 Y76.435 E20.91861
G1 X107.881 Y76.022 E20.93541
G0 F3600 X108.2 Y76.264
G1 F1200 X109.953 Y73.951 E21.03194
G1 X110.256 Y73.579 E21.0479
G1 X112.163 Y71.392 E21.14441
G1 X112.489 Y71.042 E21.16031
G1 X114.541 Y68.99 E21.25683
G1 X114.891 Y68.664 E21.27274
G1 X117.078 Y66.757 E21.36925
G1 X117.45 Y66.454 E21.38521
G1 X119.763 Y64.701 E21.48174
G1 X120.153 Y64.426 E21.49761
G1 X122.581 Y62.834 E21.59418
G1 X122.986 Y62.587 E21.60996
G1 X125.515 Y61.164 E21.70647
G1 X125.943 Y60.943 E21.72249
G1 X128.562 Y59.698 E21.81894
G1 X128.997 Y59.509 E21.83472
G1 X131.698 Y58.443 E21.9313
G1 X132.153 Y58.281 E21.94736
G1 X134.92 Y57.404 E22.0439
G1 X135.375 Y57.277 E22.05962
G1 X138.193 Y56.589 E22.1561
G1 X138.664 Y56.491 E22.1721
G1 X141.524 Y55.998 E22.26862
G1 X141.999 Y55.932 E22.28457
G1 X144.887 Y55.636 E22.38113
G1 X145.36 Y55.604 E22.3969
G1 X148.259 Y55.504 E22.49338
G1 X148.741 Y55.504 E22.50941
G1 X151.64 Y55.604 E22.60589
G1 X152.113 Y55.636 E22.62166
G1 X155.001 Y55.932 E22.71821
G1 X155.476 Y55.998 E22.73417
G1 X158.336 Y56.491 E22.83069
G1 X158.807 Y56.589 E22.84669
G1 X161.625 Y57.277 E22.94317
G1 X162.08 Y57.404 E22.95889
G1 X164.847 Y58.281 E23.05543
G1 X165.302 Y58.443 E23.07149
G1 X168.003 Y59.509 E23.16807
G1 X168.438 Y59.698 E23.18385
G1 X171.057 Y60.943 E23.2803
G1 X171.485 Y61.164 E23.29632
G1 X174.014 Y62.587 E23.39283
G1 X174.419 Y62.834 E23.40861
G1 X176.847 Y64.426 E23.50518
G1 X177.237 Y64.701 E23.52105
G1 X179.549 Y66.453 E23.61753
G1 X179.921 Y66.756 E23.63349
G1 X182.108 Y68.663 E23.73
G1 X182.458 Y68.989 E23.74591
G1 X184.51 Y71.041 E23.84243
G1 X184.836 Y71.391 E23.85834
G1 X186.743 Y73.578 E23.95485
G1 X187.046 Y73.95 E23.9708
G1 X188.799 Y76.263 E24.06733
G1 X189.074 Y76.653 E24.0832
G1 X190.666 Y79.081 E24.17977
G1 X190.913 Y79.486 E24.19555
G1 X192.336 Y82.015 E24.29206
G1 X192.557 Y82.443 E24.30809
G1 X193.802 Y85.062 E24.40454
G1 X193.991 Y85.496 E24.42028
G1 X195.057 Y88.196 E24.51683
G1 X195.219 Y88.652 E24.53292
G1 X196.096 Y91.419 E24.62947
G1 X196.223 Y91.874 E24.64518
G1 X196.911 Y94.693 E24.74169
G1 X197.009 Y95.163 E24.75766
G1 X197.502 Y98.022 E24.85415
G1 X197.568 Y98.498 E24.87014
G1 X197.864 Y101.386 E24.96669
G1 X197.896 Y101.859 E24.98246
G1 X197.996 Y104.758 E25.07894
G1 X197.996 Y105.24 E25.09497
G1 X197.896 Y108.14 E25.19148
G1 X197.864 Y108.613 E25.20725
G1 X197.568 Y111.501 E25.30381
G1 X197.502 Y111.976 E25.31976
G1 X197.009 Y114.836 E25.41629
G1 X196.911 Y115.307 E25.43229
G1 X196.223 Y118.125 E25.52877
G1 X196.096 Y118.58 E25.54448
G1 X195.219 Y121.347 E25.64102
G1 X195.057 Y121.801 E25.65706
G1 X193.992 Y124.5 E25.75356
G1 X193.803 Y124.936 E25.76937
G1 X192.557 Y127.557 E25.86589
G1 X192.336 Y127.985 E25.88191
G1 X190.913 Y130.514 E25.97843
G1 X190.666 Y130.919 E25.99421
G1 X189.075 Y133.346 E26.09073
G1 X188.8 Y133.736 E26.1066
G1 X187.047 Y136.049 E26.20313
G1 X186.744 Y136.421 E26.21908
G1 X184.837 Y138.608 E26.31559
G1 X184.511 Y138.958 E26.3315
G1 X182.459 Y141.01 E26.42802
G1 X182.109 Y141.336 E26.44393
G1 X179.922 Y143.243 E26.54044
G1 X179.55 Y143.546 E26.5564
G1 X177.237 Y145.299 E26.65293
G1 X176.847 Y145.574 E26.6688
G1 X174.419 Y147.166 E26.76537
G1 X174.014 Y147.413 E26.78114
G1 X171.485 Y148.836 E26.87766
G1 X171.057 Y149.057 E26.89368
G1 X168.438 Y150.302 E26.99013
G1 X168.003 Y150.491 E27.00591
G1 X165.302 Y151.557 E27.10248
G1 X164.847 Y151.719 E27.11855
G1 X162.08 Y152.596 E27.21509
G1 X161.625 Y152.723 E27.2308
G1 X158.807 Y153.411 E27.32728
G1 X158.336 Y153.509 E27.34328
G1 X155.476 Y154.002 E27.43981
G1 X155.001 Y154.068 E27.45576
G1 X152.113 Y154.364 E27.55232
G1 X151.64 Y154.396 E27.56809
G1 X148.741 Y154.496 E27.66457
G1 X148.259 Y154.496 E27.6806
G1 X145.36 Y154.396 E27.77708
G1 X144.887 Y154.364 E27.79284
G1 X141.999 Y154.068 E27.8894
G1 X141.524 Y154.002 E27.90535
G1 X138.664 Y153.509 E28.00188
G1 X138.193 Y153.411 E28.01788
G1 X135.375 Y152.723 E28.11436
G1 X134.92 Y152.596 E28.13007
G1 X132.153 Y151.719 E28.22662
G1 X131.698 Y151.557 E28.24268
G1 X128.997 Y150.491 E28.33926
G1 X128.562 Y150.302 E28.35503
G1 X125.943 Y149.057 E28.45148
G1 X125.515 Y148.836 E28.4675
G1 X122.986 Y147.413 E28.56402
G1 X122.581 Y147.166 E28.5798
G1 X120.153 Y145.574 E28.67636
G1 X119.763 Y145.299 E28.69224
G1 X117.45 Y143.546 E28.78877
G1 X117.078 Y143.243 E28.80472
G1 X114.891 Y141.336 E28.90123
G1 X114.541 Y141.01 E28.91714
