;FLAVOR:RepRap
;TIME:7941
;Generated with Cura_SteamEngine 2.3.1
M104 S210
M109 S210
; -- START GCODE --
G21                     ;set units to millimetres
G90                     ;set to absolute positioning
M106 S0                 ;set fan speed to zero (turned off)
G28 X0 Y0               ;move to the X/Y origin (Home)
G28 Z0                  ;move to the Z origin (Home)
G1 Z15.0 F1200          ;move Z to position 15.0 mm
G92 E0                  ;zero the extruded length
G1 E20 F200             ;extrude 20mm of feed stock
G92 E0                  ;zero the extruded length again
G1 F7200                ;set feedrate to 120 mm/s
; -- end of START GCODE --
;LAYER_COUNT:210
;LAYER:0
M107
G1 F1500 E-6.5
G0 F3600 X125.098 Y82.546 Z.2
;TYPE:SKIRT
G1 F1500 E0
G1 F1200 X125.581 Y81.922 E0.02625
G1 X126.124 Y81.349 E0.0525
G1 X126.723 Y80.834 E0.07878
G1 X127.371 Y80.383 E0.10503
G1 X128.062 Y79.999 E0.13133
G1 X128.787 Y79.687 E0.15758
G1 X129.54 Y79.45 E0.18383
G1 X130.314 Y79.291 E0.21012
G1 X131.099 Y79.21 E0.23636
G1 X131.501 Y79.2 E0.24974
G1 X165.5 Y79.2 E1.38055
G1 X166.289 Y79.24 E1.40683
G1 X167.069 Y79.359 E1.43307
G1 X167.834 Y79.557 E1.45935
G1 X168.574 Y79.831 E1.4856
G1 X169.283 Y80.179 E1.51187
G1 X169.954 Y80.597 E1.53816
G1 X170.578 Y81.08 E1.5644
G1 X171.151 Y81.623 E1.59066
G1 X171.666 Y82.222 E1.61693
G1 X172.117 Y82.87 E1.64319
G1 X172.501 Y83.561 E1.66949
G1 X172.813 Y84.286 E1.69574
G1 X173.05 Y85.039 E1.72199
G1 X173.209 Y85.813 E1.74828
G1 X173.29 Y86.598 E1.77452
G1 X173.3 Y87 E1.7879
G1 X173.3 Y123 E2.98526
G1 X173.26 Y123.789 E3.01154
G1 X173.141 Y124.569 E3.03778
G1 X172.943 Y125.334 E3.06406
G1 X172.669 Y126.074 E3.09031
G1 X172.321 Y126.783 E3.11658
G1 X171.903 Y127.454 E3.14287
G1 X171.42 Y128.078 E3.16912
G1 X170.877 Y128.651 E3.19537
G1 X170.278 Y129.166 E3.22165
G1 X169.63 Y129.617 E3.24791
G1 X168.939 Y130.001 E3.2742
G1 X168.214 Y130.313 E3.30045
G1 X167.461 Y130.55 E3.32671
G1 X166.687 Y130.709 E3.35299
G1 X165.902 Y130.79 E3.37924
G1 X165.5 Y130.8 E3.39261
G1 X131.501 Y130.8 E4.52342
G1 X130.712 Y130.76 E4.5497
G1 X129.932 Y130.641 E4.57594
G1 X129.167 Y130.443 E4.60222
G1 X128.427 Y130.169 E4.62847
G1 X127.718 Y129.821 E4.65474
G1 X127.047 Y129.403 E4.68103
G1 X126.423 Y128.92 E4.70728
G1 X125.85 Y128.377 E4.73353
G1 X125.335 Y127.778 E4.75981
G1 X124.884 Y127.13 E4.78607
G1 X124.5 Y126.439 E4.81236
G1 X124.188 Y125.714 E4.83861
G1 X123.951 Y124.961 E4.86487
G1 X123.792 Y124.187 E4.89115
G1 X123.711 Y123.402 E4.9174
G1 X123.701 Y123 E4.93077
G1 X123.701 Y87 E6.12813
G1 X123.741 Y86.211 E6.15441
G1 X123.86 Y85.431 E6.18065
G1 X124.058 Y84.666 E6.20694
G1 X124.332 Y83.926 E6.23318
G1 X124.68 Y83.217 E6.25945
G1 X125.098 Y82.546 E6.28574
G0 F3600 X125.495 Y82.677
G1 F1200 X125.976 Y82.077 E6.31132
G1 X126.517 Y81.53 E6.33691
G1 X127.112 Y81.042 E6.3625
G1 X127.754 Y80.619 E6.38808
G1 X128.437 Y80.264 E6.41368
G1 X129.152 Y79.983 E6.43923
G1 X129.894 Y79.777 E6.46484
G1 X130.652 Y79.649 E6.49041
G1 X131.501 Y79.6 E6.51869
G1 X165.5 Y79.6 E7.64951
G1 X166.268 Y79.64 E7.67508
G1 X167.028 Y79.759 E7.70067
G1 X167.771 Y79.957 E7.72624
G1 X168.49 Y80.231 E7.75184
G1 X169.176 Y80.578 E7.77741
G1 X169.823 Y80.994 E7.80299
G1 X170.423 Y81.475 E7.82857
G1 X170.97 Y82.016 E7.85416
G1 X171.458 Y82.611 E7.87975
G1 X171.881 Y83.253 E7.90532
G1 X172.236 Y83.936 E7.93092
G1 X172.517 Y84.651 E7.95647
G1 X172.723 Y85.393 E7.98209
G1 X172.851 Y86.151 E8.00765
G1 X172.9 Y87 E8.03594
G1 X172.9 Y123 E9.2333
G1 X172.86 Y123.768 E9.25888
G1 X172.741 Y124.528 E9.28447
G1 X172.543 Y125.271 E9.31004
G1 X172.269 Y125.99 E9.33564
G1 X171.922 Y126.676 E9.3612
G1 X171.506 Y127.323 E9.38679
G1 X171.025 Y127.923 E9.41237
G1 X170.484 Y128.47 E9.43795
G1 X169.889 Y128.958 E9.46355
G1 X169.247 Y129.381 E9.48912
G1 X168.564 Y129.736 E9.51472
G1 X167.849 Y130.017 E9.54027
G1 X167.107 Y130.223 E9.56589
G1 X166.349 Y130.351 E9.59145
G1 X165.5 Y130.4 E9.61974
G1 X131.501 Y130.4 E10.75055
G1 X130.733 Y130.36 E10.77613
G1 X129.973 Y130.241 E10.80171
G1 X129.23 Y130.043 E10.82729
G1 X128.511 Y129.769 E10.85288
G1 X127.825 Y129.422 E10.87845
G1 X127.178 Y129.006 E10.90403
G1 X126.578 Y128.525 E10.92961
G1 X126.031 Y127.984 E10.9552
G1 X125.543 Y127.389 E10.98079
G1 X125.12 Y126.747 E11.00636
G1 X124.765 Y126.064 E11.03197
G1 X124.484 Y125.349 E11.05752
G1 X124.278 Y124.607 E11.08313
G1 X124.15 Y123.849 E11.1087
G1 X124.101 Y123 E11.13698
G1 X124.101 Y87 E12.33435
G1 X124.141 Y86.232 E12.35993
G1 X124.26 Y85.472 E12.38551
G1 X124.458 Y84.729 E12.41109
G1 X124.732 Y84.01 E12.43668
G1 X125.079 Y83.324 E12.46225
G1 X125.495 Y82.677 E12.48783
G0 F3600 X125.893 Y82.811
G1 F1200 X126.372 Y82.237 E12.5127
G1 X126.909 Y81.716 E12.53758
G1 X127.499 Y81.257 E12.56245
G1 X128.135 Y80.862 E12.58735
G1 X128.809 Y80.538 E12.61222
G1 X129.514 Y80.288 E12.6371
G1 X130.242 Y80.114 E12.66199
G1 X130.984 Y80.019 E12.68687
G1 X131.501 Y80 E12.70408
G1 X165.5 Y80 E13.83489
G1 X166.247 Y80.04 E13.85977
G1 X166.985 Y80.159 E13.88464
G1 X167.707 Y80.357 E13.90954
G1 X168.403 Y80.63 E13.9344
G1 X169.066 Y80.977 E13.95929
G1 X169.689 Y81.392 E13.98419
G1 X170.263 Y81.871 E14.00906
G1 X170.784 Y82.408 E14.03394
G1 X171.243 Y82.998 E14.0588
G1 X171.638 Y83.634 E14.0837
G1 X171.962 Y84.308 E14.10858
G1 X172.212 Y85.013 E14.13346
G1 X172.386 Y85.741 E14.15835
G1 X172.481 Y86.483 E14.18323
G1 X172.5 Y87 E14.20044
G1 X172.5 Y123 E15.3978
G1 X172.46 Y123.747 E15.42269
G1 X172.341 Y124.485 E15.44755
G1 X172.143 Y125.207 E15.47245
G1 X171.87 Y125.903 E15.49731
G1 X171.523 Y126.566 E15.5222
G1 X171.108 Y127.189 E15.5471
G1 X170.629 Y127.763 E15.57197
G1 X170.092 Y128.284 E15.59685
G1 X169.502 Y128.743 E15.62171
G1 X168.866 Y129.138 E15.64662
G1 X168.192 Y129.462 E15.67149
G1 X167.487 Y129.712 E15.69637
G1 X166.759 Y129.886 E15.72126
G1 X166.017 Y129.981 E15.74614
G1 X165.5 Y130 E15.76335
G1 X131.501 Y130 E16.89416
G1 X130.754 Y129.96 E16.91904
G1 X130.016 Y129.841 E16.94391
G1 X129.294 Y129.643 E16.96881
G1 X128.598 Y129.37 E16.99367
G1 X127.935 Y129.023 E17.01856
G1 X127.312 Y128.608 E17.04346
G1 X126.738 Y128.129 E17.06832
G1 X126.217 Y127.592 E17.09321
G1 X125.758 Y127.002 E17.11807
G1 X125.363 Y126.366 E17.14297
G1 X125.039 Y125.692 E17.16785
G1 X124.789 Y124.987 E17.19273
G1 X124.615 Y124.259 E17.21762
G1 X124.52 Y123.517 E17.2425
G1 X124.501 Y123 E17.25971
G1 X124.501 Y87 E18.45707
G1 X124.541 Y86.253 E18.48195
G1 X124.66 Y85.515 E18.50682
G1 X124.858 Y84.793 E18.53172
G1 X125.131 Y84.097 E18.55658
G1 X125.478 Y83.434 E18.58147
G1 X125.893 Y82.811 E18.60637
G0 F3600 X126.29 Y82.95
G1 F1200 X126.766 Y82.402 E18.63051
G1 X127.3 Y81.909 E18.65469
G1 X127.885 Y81.479 E18.67883
G1 X128.514 Y81.115 E18.70301
G1 X129.179 Y80.822 E18.72717
G1 X129.872 Y80.604 E18.75134
G1 X130.584 Y80.464 E18.77547
G1 X131.501 Y80.4 E18.80605
G1 X165.5 Y80.4 E19.93686
G1 X166.225 Y80.44 E19.96101
G1 X166.942 Y80.559 E19.98518
G1 X167.641 Y80.757 E20.00934
G1 X168.314 Y81.03 E20.0335
G1 X168.953 Y81.375 E20.05765
G1 X169.55 Y81.789 E20.08182
G1 X170.098 Y82.265 E20.10596
G1 X170.591 Y82.799 E20.13013
G1 X171.021 Y83.384 E20.15428
G1 X171.385 Y84.013 E20.17845
G1 X171.678 Y84.678 E20.20262
G1 X171.896 Y85.371 E20.22678
G1 X172.036 Y86.083 E20.25092
G1 X172.1 Y87 E20.28149
G1 X172.1 Y123 E21.47886
G1 X172.06 Y123.725 E21.50301
G1 X171.941 Y124.442 E21.52718
G1 X171.743 Y125.141 E21.55134
G1 X171.47 Y125.814 E21.5755
G1 X171.125 Y126.453 E21.59965
G1 X170.711 Y127.05 E21.62382
G1 X170.235 Y127.598 E21.64796
G1 X169.701 Y128.091 E21.67213
G1 X169.116 Y128.521 E21.69628
G1 X168.487 Y128.885 E21.72045
G1 X167.822 Y129.178 E21.74462
G1 X167.129 Y129.396 E21.76878
G1 X166.417 Y129.536 E21.79292
G1 X165.5 Y129.6 E21.82349
G1 X131.501 Y129.6 E22.9543
G1 X130.776 Y129.56 E22.97845
G1 X130.059 Y129.441 E23.00263
G1 X129.36 Y129.243 E23.02679
G1 X128.687 Y128.97 E23.05095
G1 X128.048 Y128.625 E23.0751
G1 X127.451 Y128.211 E23.09926
G1 X126.903 Y127.735 E23.12341
G1 X126.41 Y127.201 E23.14758
G1 X125.98 Y126.616 E23.17173
G1 X125.616 Y125.987 E23.1959
G1 X125.323 Y125.322 E23.22007
G1 X125.105 Y124.629 E23.24423
G1 X124.965 Y123.917 E23.26836
G1 X124.901 Y123 E23.29894
G1 X124.901 Y87 E24.4963
G1 X124.941 Y86.275 E24.52045
G1 X125.06 Y85.558 E24.54463
G1 X125.258 Y84.859 E24.56879
G1 X125.531 Y84.186 E24.59295
G1 X125.876 Y83.547 E24.6171
G1 X126.29 Y82.95 E24.64126
G0 F3600 X126.686 Y83.094
G1 F1200 X127.16 Y82.573 E24.66469
G1 X127.69 Y82.109 E24.68812
G1 X128.269 Y81.709 E24.71152
G1 X128.89 Y81.377 E24.73495
G1 X129.544 Y81.117 E24.75835
G1 X130.224 Y80.933 E24.78178
G1 X130.92 Y80.827 E24.8052
G1 X131.501 Y80.8 E24.82455
G1 X165.5 Y80.8 E25.95536
G1 X166.203 Y80.84 E25.97878
G1 X166.897 Y80.959 E26.0022
G1 X167.572 Y81.157 E26.02559
G1 X168.221 Y81.429 E26.049
G1 X168.835 Y81.774 E26.07242
G1 X169.406 Y82.185 E26.09582
G1 X169.927 Y82.659 E26.11925
G1 X170.391 Y83.189 E26.14268
G1 X170.791 Y83.768 E26.16608
G1 X171.123 Y84.389 E26.1895
G1 X171.383 Y85.043 E26.21291
G1 X171.567 Y85.723 E26.23634
G1 X171.673 Y86.419 E26.25976
G1 X171.7 Y87 E26.2791
G1 X171.7 Y123 E27.47647
G1 X171.66 Y123.703 E27.49989
G1 X171.541 Y124.397 E27.52331
G1 X171.343 Y125.072 E27.5467
G1 X171.071 Y125.721 E27.57011
G1 X170.726 Y126.335 E27.59353
G1 X170.315 Y126.906 E27.61693
G1 X169.841 Y127.427 E27.64036
G1 X169.311 Y127.891 E27.66379
G1 X168.732 Y128.291 E27.6872
G1 X168.111 Y128.623 E27.71062
G1 X167.457 Y128.883 E27.73402
G1 X166.777 Y129.067 E27.75746
G1 X166.081 Y129.173 E27.78087
G1 X165.5 Y129.2 E27.80022
G1 X131.501 Y129.2 E28.93103
G1 X130.798 Y129.16 E28.95445
G1 X130.104 Y129.041 E28.97787
G1 X129.429 Y128.843 E29.00126
G1 X128.78 Y128.571 E29.02467
G1 X128.166 Y128.226 E29.04809
G1 X127.595 Y127.815 E29.07149
G1 X127.074 Y127.341 E29.09492
G1 X126.61 Y126.811 E29.11835
G1 X126.21 Y126.232 E29.14175
G1 X125.878 Y125.611 E29.16518
G1 X125.618 Y124.957 E29.18858
G1 X125.434 Y124.277 E29.21201
G1 X125.328 Y123.581 E29.23543
G1 X125.301 Y123 E29.25477
G1 X125.301 Y87 E30.45214
G1 X125.341 Y86.297 E30.47556
G1 X125.46 Y85.603 E30.49898
G1 X125.658 Y84.928 E30.52238
G1 X125.93 Y84.279 E30.54578
G1 X126.275 Y83.665 E30.5692
G1 X126.686 Y83.094 E30.5926
G0 F3600 X127.083 Y83.242
G1 F1200 X127.554 Y82.751 E30.61523
G1 X128.079 Y82.317 E30.63789
G1 X128.651 Y81.948 E30.66053
G1 X129.263 Y81.649 E30.68318
G1 X129.905 Y81.424 E30.70581
G1 X130.57 Y81.275 E30.72848
G1 X131.501 Y81.2 E30.75954
G1 X165.5 Y81.2 E31.89035
G1 X166.18 Y81.24 E31.91301
G1 X166.85 Y81.359 E31.93564
G1 X167.502 Y81.556 E31.9583
G1 X168.126 Y81.828 E31.98094
G1 X168.714 Y82.172 E32.0036
G1 X169.258 Y82.582 E32.02625
G1 X169.749 Y83.053 E32.04888
G1 X170.183 Y83.578 E32.07154
G1 X170.552 Y84.15 E32.09418
G1 X170.851 Y84.762 E32.11683
G1 X171.076 Y85.404 E32.13946
G1 X171.225 Y86.069 E32.16212
G1 X171.3 Y87 E32.19319
G1 X171.3 Y123 E33.39056
G1 X171.26 Y123.68 E33.41321
G1 X171.141 Y124.35 E33.43584
G1 X170.944 Y125.002 E33.4585
G1 X170.672 Y125.626 E33.48114
G1 X170.328 Y126.214 E33.5038
G1 X169.918 Y126.758 E33.52645
G1 X169.447 Y127.249 E33.54908
G1 X168.922 Y127.683 E33.57174
G1 X168.35 Y128.052 E33.59438
G1 X167.738 Y128.351 E33.61703
G1 X167.096 Y128.576 E33.63966
G1 X166.431 Y128.725 E33.66233
G1 X165.5 Y128.8 E33.69339
G1 X131.501 Y128.8 E34.8242
G1 X130.821 Y128.76 E34.84686
G1 X130.151 Y128.641 E34.86949
G1 X129.499 Y128.444 E34.89215
G1 X128.875 Y128.172 E34.91479
G1 X128.287 Y127.828 E34.93744
G1 X127.743 Y127.418 E34.9601
G1 X127.252 Y126.947 E34.98273
G1 X126.818 Y126.422 E35.00539
G1 X126.449 Y125.85 E35.02803
G1 X126.15 Y125.238 E35.05068
G1 X125.925 Y124.596 E35.07331
G1 X125.776 Y123.931 E35.09597
G1 X125.701 Y123 E35.12704
G1 X125.701 Y87 E36.3244
G1 X125.741 Y86.32 E36.34706
G1 X125.86 Y85.65 E36.36969
G1 X126.057 Y84.998 E36.39235
G1 X126.329 Y84.374 E36.41499
G1 X126.673 Y83.786 E36.43764
G1 X127.083 Y83.242 E36.4603
G0 F3600 X127.479 Y83.397
G1 F1200 X127.946 Y82.935 E36.48215
G1 X128.466 Y82.534 E36.50399
G1 X129.03 Y82.198 E36.52583
G1 X129.632 Y81.934 E36.54769
G1 X130.261 Y81.744 E36.56954
G1 X130.908 Y81.633 E36.59138
G1 X131.501 Y81.6 E36.61113
G1 X165.5 Y81.6 E37.74194
G1 X166.156 Y81.64 E37.7638
G1 X166.802 Y81.759 E37.78565
G1 X167.429 Y81.956 E37.80751
G1 X168.027 Y82.228 E37.82936
G1 X168.588 Y82.57 E37.85121
G1 X169.103 Y82.978 E37.87306
G1 X169.565 Y83.445 E37.89491
G1 X169.966 Y83.965 E37.91675
G1 X170.302 Y84.529 E37.93859
G1 X170.566 Y85.131 E37.96045
G1 X170.756 Y85.76 E37.98231
G1 X170.867 Y86.407 E38.00414
G1 X170.9 Y87 E38.02389
G1 X170.9 Y123 E39.22126
G1 X170.86 Y123.656 E39.24312
G1 X170.741 Y124.302 E39.26497
G1 X170.544 Y124.929 E39.28683
G1 X170.272 Y125.527 E39.30868
G1 X169.93 Y126.088 E39.33053
G1 X169.522 Y126.603 E39.35238
G1 X169.055 Y127.065 E39.37423
G1 X168.535 Y127.466 E39.39607
G1 X167.971 Y127.802 E39.41791
G1 X167.369 Y128.066 E39.43977
G1 X166.74 Y128.256 E39.46162
G1 X166.093 Y128.367 E39.48346
G1 X165.5 Y128.4 E39.50321
G1 X131.501 Y128.4 E40.63402
G1 X130.845 Y128.36 E40.65588
G1 X130.199 Y128.241 E40.67773
G1 X129.572 Y128.044 E40.69959
G1 X128.974 Y127.772 E40.72144
G1 X128.413 Y127.43 E40.74329
G1 X127.898 Y127.022 E40.76514
G1 X127.436 Y126.555 E40.78699
G1 X127.035 Y126.035 E40.80883
G1 X126.699 Y125.471 E40.83067
G1 X126.435 Y124.869 E40.85253
G1 X126.245 Y124.24 E40.87439
G1 X126.134 Y123.593 E40.89622
G1 X126.101 Y123 E40.91597
G1 X126.101 Y87 E42.11334
G1 X126.141 Y86.344 E42.1352
G1 X126.26 Y85.698 E42.15705
G1 X126.457 Y85.071 E42.17891
G1 X126.729 Y84.473 E42.20076
G1 X127.071 Y83.912 E42.22261
G1 X127.479 Y83.397 E42.24446
G0 F3600 X127.874 Y83.559
G1 F1200 X128.337 Y83.129 E42.26548
G1 X128.851 Y82.76 E42.28652
G1 X129.407 Y82.46 E42.30754
G1 X129.996 Y82.232 E42.32854
G1 X130.61 Y82.08 E42.34958
G1 X131.501 Y82 E42.37933
G1 X165.5 Y82 E43.51015
G1 X166.131 Y82.04 E43.53118
G1 X166.752 Y82.159 E43.55221
G1 X167.352 Y82.356 E43.57321
G1 X167.924 Y82.627 E43.59426
G1 X168.456 Y82.967 E43.61526
G1 X168.941 Y83.373 E43.6363
G1 X169.371 Y83.836 E43.65731
G1 X169.74 Y84.35 E43.67836
G1 X170.04 Y84.906 E43.69937
G1 X170.268 Y85.495 E43.72038
G1 X170.42 Y86.109 E43.74142
G1 X170.5 Y87 E43.77117
G1 X170.5 Y123 E44.96854
G1 X170.46 Y123.631 E44.98957
G1 X170.341 Y124.252 E45.0106
G1 X170.144 Y124.852 E45.0316
G1 X169.873 Y125.424 E45.05265
G1 X169.533 Y125.956 E45.07365
G1 X169.127 Y126.441 E45.09469
G1 X168.664 Y126.871 E45.1157
G1 X168.15 Y127.24 E45.13675
G1 X167.594 Y127.54 E45.15776
G1 X167.005 Y127.768 E45.17877
G1 X166.391 Y127.92 E45.19981
G1 X165.5 Y128 E45.22956
G1 X131.501 Y128 E46.36037
G1 X130.87 Y127.96 E46.3814
G1 X130.249 Y127.841 E46.40243
G1 X129.649 Y127.644 E46.42344
G1 X129.077 Y127.373 E46.44449
G1 X128.545 Y127.033 E46.46549
G1 X128.06 Y126.627 E46.48653
G1 X127.63 Y126.164 E46.50754
G1 X127.261 Y125.65 E46.52859
G1 X126.961 Y125.094 E46.5496
G1 X126.733 Y124.505 E46.57061
G1 X126.581 Y123.891 E46.59164
G1 X126.501 Y123 E46.6214
G1 X126.501 Y87 E47.81876
G1 X126.541 Y86.369 E47.83979
G1 X126.66 Y85.748 E47.86082
G1 X126.857 Y85.148 E47.88183
G1 X127.128 Y84.576 E47.90288
G1 X127.468 Y84.044 E47.92388
G1 X127.874 Y83.559 E47.94492
G0 F3600 X128.268 Y83.728
G1 F1200 X128.726 Y83.331 E47.96507
G1 X129.233 Y82.998 E47.98525
G1 X129.779 Y82.734 E48.00542
G1 X130.355 Y82.545 E48.02558
G1 X130.951 Y82.433 E48.04575
G1 X131.501 Y82.4 E48.06408
G1 X165.5 Y82.4 E49.19489
G1 X166.105 Y82.44 E49.21506
G1 X166.699 Y82.559 E49.23521
G1 X167.273 Y82.755 E49.25538
G1 X167.816 Y83.026 E49.27556
G1 X168.319 Y83.365 E49.29574
G1 X168.772 Y83.767 E49.31588
G1 X169.169 Y84.225 E49.33604
G1 X169.502 Y84.732 E49.35622
G1 X169.766 Y85.278 E49.37639
G1 X169.955 Y85.854 E49.39655
G1 X170.067 Y86.45 E49.41672
G1 X170.1 Y87 E49.43505
G1 X170.1 Y123 E50.63241
G1 X170.06 Y123.605 E50.65258
G1 X169.941 Y124.199 E50.67273
G1 X169.745 Y124.773 E50.6929
G1 X169.474 Y125.316 E50.71309
G1 X169.135 Y125.819 E50.73326
G1 X168.733 Y126.272 E50.75341
G1 X168.275 Y126.669 E50.77356
G1 X167.768 Y127.002 E50.79374
G1 X167.222 Y127.266 E50.81391
G1 X166.646 Y127.455 E50.83407
