;FLAVOR:RepRap
;TIME:7446
;Generated with Cura_SteamEngine 2.3.1
M104 S200
M109 S200
; -- START GCODE --
G21                     ;set units to millimetres
G90                     ;set to absolute positioning
M106 S0                 ;set fan speed to zero (turned off)
G28 X0 Y0               ;move to the X/Y origin (Home)
G28 Z0                  ;move to the Z origin (Home)
G1 Z15.0 F1200          ;move Z to position 15.0 mm
G92 E0                  ;zero the extruded length
G1 E20 F200             ;extrude 20mm of feed stock
G92 E0                  ;zero the extruded length again
G1 F7200                ;set feedrate to 120 mm/s
; -- end of START GCODE --
;LAYER_COUNT:210
;LAYER:0
M107
G1 F1500 E-6.5
G0 F3600 X125.098 Y83.296 Z.2
;TYPE:SKIRT
G1 F1500 E0
G1 F1200 X125.581 Y82.672 E0.02625
G1 X126.124 Y82.099 E0.0525
G1 X126.723 Y81.584 E0.07878
G1 X127.371 Y81.133 E0.10503
G1 X128.062 Y80.749 E0.13133
G1 X128.787 Y80.437 E0.15758
G1 X129.54 Y80.2 E0.18383
G1 X130.314 Y80.041 E0.21012
G1 X131.099 Y79.96 E0.23636
G1 X131.501 Y79.95 E0.24974
G1 X165.5 Y79.95 E1.38055
G1 X166.289 Y79.99 E1.40683
G1 X167.069 Y80.109 E1.43307
G1 X167.834 Y80.307 E1.45935
G1 X168.574 Y80.581 E1.4856
G1 X169.283 Y80.929 E1.51187
G1 X169.954 Y81.347 E1.53816
G1 X170.578 Y81.83 E1.5644
G1 X171.151 Y82.373 E1.59066
G1 X171.666 Y82.972 E1.61693
G1 X172.117 Y83.62 E1.64319
G1 X172.501 Y84.311 E1.66949
G1 X172.813 Y85.036 E1.69574
G1 X173.05 Y85.789 E1.72199
G1 X173.209 Y86.563 E1.74828
G1 X173.29 Y87.348 E1.77452
G1 X173.3 Y87.75 E1.7879
G1 X173.3 Y122.25 E2.93537
G1 X173.26 Y123.039 E2.96165
G1 X173.141 Y123.819 E2.98789
G1 X172.943 Y124.584 E3.01417
G1 X172.669 Y125.324 E3.04042
G1 X172.321 Y126.033 E3.06669
G1 X171.903 Y126.704 E3.09298
G1 X171.42 Y127.328 E3.11923
G1 X170.877 Y127.901 E3.14548
G1 X170.278 Y128.416 E3.17176
G1 X169.63 Y128.867 E3.19802
G1 X168.939 Y129.251 E3.22431
G1 X168.214 Y129.563 E3.25056
G1 X167.461 Y129.8 E3.27682
G1 X166.687 Y129.959 E3.3031
G1 X165.902 Y130.04 E3.32935
G1 X165.5 Y130.05 E3.34272
G1 X131.501 Y130.05 E4.47353
G1 X130.712 Y130.01 E4.49981
G1 X129.932 Y129.891 E4.52605
G1 X129.167 Y129.693 E4.55233
G1 X128.427 Y129.419 E4.57858
G1 X127.718 Y129.071 E4.60485
G1 X127.047 Y128.653 E4.63114
G1 X126.423 Y128.17 E4.65739
G1 X125.85 Y127.627 E4.68364
G1 X125.335 Y127.028 E4.70992
G1 X124.884 Y126.38 E4.73618
G1 X124.5 Y125.689 E4.76247
G1 X124.188 Y124.964 E4.78872
G1 X123.951 Y124.211 E4.81498
G1 X123.792 Y123.437 E4.84126
G1 X123.711 Y122.652 E4.86751
G1 X123.701 Y122.25 E4.88088
G1 X123.701 Y87.75 E6.02835
G1 X123.741 Y86.961 E6.05463
G1 X123.86 Y86.181 E6.08087
G1 X124.058 Y85.416 E6.10716
G1 X124.332 Y84.676 E6.1334
G1 X124.68 Y83.967 E6.15967
G1 X125.098 Y83.296 E6.18596
G0 F3600 X125.495 Y83.427
G1 F1200 X125.976 Y82.827 E6.21154
G1 X126.517 Y82.28 E6.23713
G1 X127.112 Y81.792 E6.26272
G1 X127.754 Y81.369 E6.2883
G1 X128.437 Y81.014 E6.3139
G1 X129.152 Y80.733 E6.33945
G1 X129.894 Y80.527 E6.36506
G1 X130.652 Y80.399 E6.39063
G1 X131.501 Y80.35 E6.41891
G1 X165.5 Y80.35 E7.54973
G1 X166.268 Y80.39 E7.5753
G1 X167.028 Y80.509 E7.60089
G1 X167.771 Y80.707 E7.62646
G1 X168.49 Y80.981 E7.65206
G1 X169.176 Y81.328 E7.67763
G1 X169.823 Y81.744 E7.70321
G1 X170.423 Y82.225 E7.72879
G1 X170.97 Y82.766 E7.75437
G1 X171.458 Y83.361 E7.77997
G1 X171.881 Y84.003 E7.80554
G1 X172.236 Y84.686 E7.83114
G1 X172.517 Y85.401 E7.85669
G1 X172.723 Y86.143 E7.88231
G1 X172.851 Y86.901 E7.90787
G1 X172.9 Y87.75 E7.93616
G1 X172.9 Y122.25 E9.08363
G1 X172.86 Y123.018 E9.10921
G1 X172.741 Y123.778 E9.1348
G1 X172.543 Y124.521 E9.16037
G1 X172.269 Y125.24 E9.18596
G1 X171.922 Y125.926 E9.21153
G1 X171.506 Y126.573 E9.23712
G1 X171.025 Y127.173 E9.26269
G1 X170.484 Y127.72 E9.28828
G1 X169.889 Y128.208 E9.31388
G1 X169.247 Y128.631 E9.33945
G1 X168.564 Y128.986 E9.36505
G1 X167.849 Y129.267 E9.3906
G1 X167.107 Y129.473 E9.41621
G1 X166.349 Y129.601 E9.44178
G1 X165.5 Y129.65 E9.47007
G1 X131.501 Y129.65 E10.60088
G1 X130.733 Y129.61 E10.62646
G1 X129.973 Y129.491 E10.65204
G1 X129.23 Y129.293 E10.67762
G1 X128.511 Y129.019 E10.70321
G1 X127.825 Y128.672 E10.72878
G1 X127.178 Y128.256 E10.75436
G1 X126.578 Y127.775 E10.77994
G1 X126.031 Y127.234 E10.80553
G1 X125.543 Y126.639 E10.83112
G1 X125.12 Y125.997 E10.85669
G1 X124.765 Y125.314 E10.8823
G1 X124.484 Y124.599 E10.90785
G1 X124.278 Y123.857 E10.93346
G1 X124.15 Y123.099 E10.95903
G1 X124.101 Y122.25 E10.98731
G1 X124.101 Y87.75 E12.13479
G1 X124.141 Y86.982 E12.16037
G1 X124.26 Y86.222 E12.18595
G1 X124.458 Y85.479 E12.21153
G1 X124.732 Y84.76 E12.23712
G1 X125.079 Y84.074 E12.26269
G1 X125.495 Y83.427 E12.28827
G0 F3600 X125.893 Y83.561
G1 F1200 X126.372 Y82.987 E12.31314
G1 X126.909 Y82.466 E12.33802
G1 X127.499 Y82.007 E12.36288
G1 X128.135 Y81.612 E12.38779
G1 X128.809 Y81.288 E12.41266
G1 X129.514 Y81.038 E12.43754
G1 X130.242 Y80.864 E12.46243
G1 X130.984 Y80.769 E12.48731
G1 X131.501 Y80.75 E12.50452
G1 X165.5 Y80.75 E13.63533
G1 X166.247 Y80.79 E13.66021
G1 X166.985 Y80.909 E13.68508
G1 X167.707 Y81.107 E13.70998
G1 X168.403 Y81.38 E13.73484
G1 X169.066 Y81.727 E13.75973
G1 X169.689 Y82.142 E13.78463
G1 X170.263 Y82.621 E13.80949
G1 X170.784 Y83.158 E13.83438
G1 X171.243 Y83.748 E13.85924
G1 X171.638 Y84.384 E13.88414
G1 X171.962 Y85.058 E13.90902
G1 X172.212 Y85.763 E13.9339
G1 X172.386 Y86.491 E13.95879
G1 X172.481 Y87.233 E13.98367
G1 X172.5 Y87.75 E14.00088
G1 X172.5 Y122.25 E15.14835
G1 X172.46 Y122.997 E15.17323
G1 X172.341 Y123.735 E15.1981
G1 X172.143 Y124.457 E15.223
G1 X171.87 Y125.153 E15.24786
G1 X171.523 Y125.816 E15.27275
G1 X171.108 Y126.439 E15.29765
G1 X170.629 Y127.013 E15.32252
G1 X170.092 Y127.534 E15.3474
G1 X169.502 Y127.993 E15.37226
G1 X168.866 Y128.388 E15.39716
G1 X168.192 Y128.712 E15.42204
G1 X167.487 Y128.962 E15.44692
G1 X166.759 Y129.136 E15.47181
G1 X166.017 Y129.231 E15.49669
G1 X165.5 Y129.25 E15.5139
G1 X131.501 Y129.25 E16.64471
G1 X130.754 Y129.21 E16.66959
G1 X130.016 Y129.091 E16.69446
G1 X129.294 Y128.893 E16.71936
G1 X128.598 Y128.62 E16.74422
G1 X127.935 Y128.273 E16.76911
G1 X127.312 Y127.858 E16.79401
G1 X126.738 Y127.379 E16.81887
G1 X126.217 Y126.842 E16.84376
G1 X125.758 Y126.252 E16.86862
G1 X125.363 Y125.616 E16.89352
G1 X125.039 Y124.942 E16.9184
G1 X124.789 Y124.237 E16.94327
G1 X124.615 Y123.509 E16.96817
G1 X124.52 Y122.767 E16.99305
G1 X124.501 Y122.25 E17.01026
G1 X124.501 Y87.75 E18.15773
G1 X124.541 Y87.003 E18.18261
G1 X124.66 Y86.265 E18.20748
G1 X124.858 Y85.543 E18.23238
G1 X125.131 Y84.847 E18.25724
G1 X125.478 Y84.184 E18.28213
G1 X125.893 Y83.561 E18.30703
G0 F3600 X126.29 Y83.7
G1 F1200 X126.766 Y83.152 E18.33117
G1 X127.3 Y82.659 E18.35534
G1 X127.885 Y82.229 E18.37949
G1 X128.514 Y81.865 E18.40366
G1 X129.179 Y81.572 E18.42783
G1 X129.872 Y81.354 E18.452
G1 X130.584 Y81.214 E18.47613
G1 X131.501 Y81.15 E18.5067
G1 X165.5 Y81.15 E19.63752
G1 X166.225 Y81.19 E19.66167
G1 X166.942 Y81.309 E19.68584
G1 X167.641 Y81.507 E19.71
G1 X168.314 Y81.78 E19.73416
G1 X168.953 Y82.125 E19.75831
G1 X169.55 Y82.539 E19.78248
G1 X170.098 Y83.015 E19.80662
G1 X170.591 Y83.549 E19.83079
G1 X171.021 Y84.134 E19.85494
G1 X171.385 Y84.763 E19.87911
G1 X171.678 Y85.428 E19.90328
G1 X171.896 Y86.121 E19.92744
G1 X172.036 Y86.833 E19.95158
G1 X172.1 Y87.75 E19.98215
G1 X172.1 Y122.25 E21.12963
G1 X172.06 Y122.975 E21.15378
G1 X171.941 Y123.692 E21.17795
G1 X171.743 Y124.391 E21.20211
G1 X171.47 Y125.064 E21.22627
G1 X171.125 Y125.703 E21.25042
G1 X170.711 Y126.3 E21.27459
G1 X170.235 Y126.848 E21.29873
G1 X169.701 Y127.341 E21.3229
G1 X169.116 Y127.771 E21.34705
G1 X168.487 Y128.135 E21.37122
G1 X167.822 Y128.428 E21.39539
G1 X167.129 Y128.646 E21.41955
G1 X166.417 Y128.786 E21.44369
G1 X165.5 Y128.85 E21.47426
G1 X131.501 Y128.85 E22.60507
G1 X130.776 Y128.81 E22.62922
G1 X130.059 Y128.691 E22.6534
G1 X129.36 Y128.493 E22.67756
G1 X128.687 Y128.22 E22.70172
G1 X128.048 Y127.875 E22.72587
G1 X127.451 Y127.461 E22.75003
G1 X126.903 Y126.985 E22.77417
G1 X126.41 Y126.451 E22.79835
G1 X125.98 Y125.866 E22.82249
G1 X125.616 Y125.237 E22.84667
G1 X125.323 Y124.572 E22.87084
G1 X125.105 Y123.879 E22.895
G1 X124.965 Y123.167 E22.91913
G1 X124.901 Y122.25 E22.94971
G1 X124.901 Y87.75 E24.09718
G1 X124.941 Y87.025 E24.12133
G1 X125.06 Y86.308 E24.14551
G1 X125.258 Y85.609 E24.16967
G1 X125.531 Y84.936 E24.19382
G1 X125.876 Y84.297 E24.21798
G1 X126.29 Y83.7 E24.24214
G0 F3600 X126.686 Y83.844
G1 F1200 X127.16 Y83.323 E24.26557
G1 X127.69 Y82.859 E24.289
G1 X128.269 Y82.459 E24.3124
G1 X128.89 Y82.127 E24.33582
G1 X129.544 Y81.867 E24.35923
G1 X130.224 Y81.683 E24.38266
G1 X130.92 Y81.577 E24.40608
G1 X131.501 Y81.55 E24.42542
G1 X165.5 Y81.55 E25.55623
G1 X166.203 Y81.59 E25.57965
G1 X166.897 Y81.709 E25.60307
G1 X167.572 Y81.907 E25.62647
G1 X168.221 Y82.179 E25.64988
G1 X168.835 Y82.524 E25.6733
G1 X169.406 Y82.935 E25.6967
G1 X169.927 Y83.409 E25.72013
G1 X170.391 Y83.939 E25.74356
G1 X170.791 Y84.518 E25.76696
G1 X171.123 Y85.139 E25.79038
G1 X171.383 Y85.793 E25.81379
G1 X171.567 Y86.473 E25.83722
G1 X171.673 Y87.169 E25.86064
G1 X171.7 Y87.75 E25.87998
G1 X171.7 Y122.25 E27.02746
G1 X171.66 Y122.953 E27.05088
G1 X171.541 Y123.647 E27.0743
G1 X171.343 Y124.322 E27.09769
G1 X171.071 Y124.971 E27.1211
G1 X170.726 Y125.585 E27.14452
G1 X170.315 Y126.156 E27.16792
G1 X169.841 Y126.677 E27.19135
G1 X169.311 Y127.141 E27.21478
G1 X168.732 Y127.541 E27.23818
G1 X168.111 Y127.873 E27.26161
G1 X167.457 Y128.133 E27.28501
G1 X166.777 Y128.317 E27.30844
G1 X166.081 Y128.423 E27.33186
G1 X165.5 Y128.45 E27.3512
G1 X131.501 Y128.45 E28.48202
G1 X130.798 Y128.41 E28.50544
G1 X130.104 Y128.291 E28.52885
G1 X129.429 Y128.093 E28.55225
G1 X128.78 Y127.821 E28.57566
G1 X128.166 Y127.476 E28.59908
G1 X127.595 Y127.065 E28.62248
G1 X127.074 Y126.591 E28.64591
G1 X126.61 Y126.061 E28.66934
G1 X126.21 Y125.482 E28.69274
G1 X125.878 Y124.861 E28.71616
G1 X125.618 Y124.207 E28.73957
G1 X125.434 Y123.527 E28.763
G1 X125.328 Y122.831 E28.78642
G1 X125.301 Y122.25 E28.80576
G1 X125.301 Y87.75 E29.95324
G1 X125.341 Y87.047 E29.97666
G1 X125.46 Y86.353 E30.00008
G1 X125.658 Y85.678 E30.02347
G1 X125.93 Y85.029 E30.04688
G1 X126.275 Y84.415 E30.0703
G1 X126.686 Y83.844 E30.0937
G0 F3600 X127.083 Y83.992
G1 F1200 X127.554 Y83.501 E30.11633
G1 X128.079 Y83.067 E30.13899
G1 X128.651 Y82.698 E30.16163
G1 X129.263 Y82.399 E30.18428
G1 X129.905 Y82.174 E30.20691
G1 X130.57 Y82.025 E30.22958
G1 X131.501 Y81.95 E30.26064
G1 X165.5 Y81.95 E31.39145
G1 X166.18 Y81.99 E31.41411
G1 X166.85 Y82.109 E31.43674
G1 X167.502 Y82.306 E31.45939
G1 X168.126 Y82.578 E31.48204
G1 X168.714 Y82.922 E31.50469
G1 X169.258 Y83.332 E31.52735
G1 X169.749 Y83.803 E31.54998
G1 X170.183 Y84.328 E31.57264
G1 X170.552 Y84.9 E31.59528
G1 X170.851 Y85.512 E31.61793
G1 X171.076 Y86.154 E31.64056
G1 X171.225 Y86.819 E31.66322
G1 X171.3 Y87.75 E31.69429
G1 X171.3 Y122.25 E32.84176
G1 X171.26 Y122.93 E32.86442
G1 X171.141 Y123.6 E32.88705
G1 X170.944 Y124.252 E32.90971
G1 X170.672 Y124.876 E32.93235
G1 X170.328 Y125.464 E32.955
G1 X169.918 Y126.008 E32.97766
G1 X169.447 Y126.499 E33.00029
G1 X168.922 Y126.933 E33.02295
G1 X168.35 Y127.302 E33.04559
G1 X167.738 Y127.601 E33.06824
G1 X167.096 Y127.826 E33.09087
G1 X166.431 Y127.975 E33.11353
G1 X165.5 Y128.05 E33.1446
G1 X131.501 Y128.05 E34.27541
G1 X130.821 Y128.01 E34.29807
G1 X130.151 Y127.891 E34.3207
G1 X129.499 Y127.694 E34.34335
G1 X128.875 Y127.422 E34.36599
G1 X128.287 Y127.078 E34.38865
G1 X127.743 Y126.668 E34.41131
G1 X127.252 Y126.197 E34.43394
G1 X126.818 Y125.672 E34.45659
G1 X126.449 Y125.1 E34.47923
G1 X126.15 Y124.488 E34.50189
G1 X125.925 Y123.846 E34.52451
G1 X125.776 Y123.181 E34.54718
G1 X125.701 Y122.25 E34.57825
G1 X125.701 Y87.75 E35.72572
G1 X125.741 Y87.07 E35.74838
G1 X125.86 Y86.4 E35.77101
G1 X126.057 Y85.748 E35.79366
G1 X126.329 Y85.124 E35.8163
G1 X126.673 Y84.536 E35.83896
G1 X127.083 Y83.992 E35.86162
G0 F3600 X127.479 Y84.147
G1 F1200 X127.946 Y83.685 E35.88347
G1 X128.466 Y83.284 E35.90531
G1 X129.03 Y82.948 E35.92714
G1 X129.632 Y82.684 E35.94901
G1 X130.261 Y82.494 E35.97086
G1 X130.908 Y82.383 E35.9927
G1 X131.501 Y82.35 E36.01245
G1 X165.5 Y82.35 E37.14326
G1 X166.156 Y82.39 E37.16512
G1 X166.802 Y82.509 E37.18697
G1 X167.429 Y82.706 E37.20883
G1 X168.027 Y82.978 E37.23068
G1 X168.588 Y83.32 E37.25253
G1 X169.103 Y83.728 E37.27438
G1 X169.565 Y84.195 E37.29623
G1 X169.966 Y84.715 E37.31807
G1 X170.302 Y85.279 E37.33991
G1 X170.566 Y85.881 E37.36177
G1 X170.756 Y86.51 E37.38362
G1 X170.867 Y87.157 E37.40546
G1 X170.9 Y87.75 E37.42521
G1 X170.9 Y122.25 E38.57269
G1 X170.86 Y122.906 E38.59455
G1 X170.741 Y123.552 E38.61639
G1 X170.544 Y124.179 E38.63825
G1 X170.272 Y124.777 E38.6601
G1 X169.93 Y125.338 E38.68196
G1 X169.522 Y125.853 E38.70381
G1 X169.055 Y126.315 E38.72566
G1 X168.535 Y126.716 E38.7475
G1 X167.971 Y127.052 E38.76933
G1 X167.369 Y127.316 E38.7912
G1 X166.74 Y127.506 E38.81305
G1 X166.093 Y127.617 E38.83489
G1 X165.5 Y127.65 E38.85464
G1 X131.501 Y127.65 E39.98545
G1 X130.845 Y127.61 E40.00731
G1 X130.199 Y127.491 E40.02916
G1 X129.572 Y127.294 E40.05102
G1 X128.974 Y127.022 E40.07287
G1 X128.413 Y126.68 E40.09472
G1 X127.898 Y126.272 E40.11657
G1 X127.436 Y125.805 E40.13842
G1 X127.035 Y125.285 E40.16026
G1 X126.699 Y124.721 E40.1821
G1 X126.435 Y124.119 E40.20396
G1 X126.245 Y123.49 E40.22581
G1 X126.134 Y122.843 E40.24765
G1 X126.101 Y122.25 E40.2674
G1 X126.101 Y87.75 E41.41488
G1 X126.141 Y87.094 E41.43674
G1 X126.26 Y86.448 E41.45858
G1 X126.457 Y85.821 E41.48044
G1 X126.729 Y85.223 E41.50229
G1 X127.071 Y84.662 E41.52415
G1 X127.479 Y84.147 E41.546
G0 F3600 X127.874 Y84.309
G1 F1200 X128.337 Y83.879 E41.56702
G1 X128.851 Y83.51 E41.58806
G1 X129.407 Y83.21 E41.60907
G1 X129.996 Y82.982 E41.63008
G1 X130.61 Y82.83 E41.65112
G1 X131.501 Y82.75 E41.68087
G1 X165.5 Y82.75 E42.81168
G1 X166.131 Y82.79 E42.83271
G1 X166.752 Y82.909 E42.85374
G1 X167.352 Y83.106 E42.87475
G1 X167.924 Y83.377 E42.8958
G1 X168.456 Y83.717 E42.9168
G1 X168.941 Y84.123 E42.93784
G1 X169.371 Y84.586 E42.95885
G1 X169.74 Y85.1 E42.9799
G1 X170.04 Y85.656 E43.00091
G1 X170.268 Y86.245 E43.02192
G1 X170.42 Y86.859 E43.04295
G1 X170.5 Y87.75 E43.07271
G1 X170.5 Y122.25 E44.22018
G1 X170.46 Y122.881 E44.24121
G1 X170.341 Y123.502 E44.26224
G1 X170.144 Y124.102 E44.28325
G1 X169.873 Y124.674 E44.3043
G1 X169.533 Y125.206 E44.3253
G1 X169.127 Y125.691 E44.34634
G1 X168.664 Y126.121 E44.36735
G1 X168.15 Y126.49 E44.3884
G1 X167.594 Y126.79 E44.40941
G1 X167.005 Y127.018 E44.43042
G1 X166.391 Y127.17 E44.45145
G1 X165.5 Y127.25 E44.48121
G1 X131.501 Y127.25 E45.61202
G1 X130.87 Y127.21 E45.63305
G1 X130.249 Y127.091 E45.65408
G1 X129.649 Y126.894 E45.67508
G1 X129.077 Y126.623 E45.69614
G1 X128.545 Y126.283 E45.71714
G1 X128.06 Y125.877 E45.73817
G1 X127.63 Y125.414 E45.75919
G1 X127.261 Y124.9 E45.78023
G1 X126.961 Y124.344 E45.80125
G1 X126.733 Y123.755 E45.82225
G1 X126.581 Y123.141 E45.84329
G1 X126.501 Y122.25 E45.87305
G1 X126.501 Y87.75 E47.02052
G1 X126.541 Y87.119 E47.04155
G1 X126.66 Y86.498 E47.06258
G1 X126.857 Y85.898 E47.08358
G1 X127.128 Y85.326 E47.10464
G1 X127.468 Y84.794 E47.12564
G1 X127.874 Y84.309 E47.14667
G0 F3600 X128.268 Y84.478
G1 F1200 X128.726 Y84.081 E47.16683
G1 X129.233 Y83.748 E47.18701
G1 X129.779 Y83.484 E47.20718
G1 X130.355 Y83.295 E47.22734
G1 X130.951 Y83.183 E47.24751
G1 X131.501 Y83.15 E47.26584
G1 X165.5 Y83.15 E48.39665
G1 X166.105 Y83.19 E48.41681
G1 X166.699 Y83.309 E48.43696
G1 X167.273 Y83.505 E48.45714
G1 X167.816 Y83.776 E48.47732
G1 X168.319 Y84.115 E48.4975
G1 X168.772 Y84.517 E48.51764
G1 X169.169 Y84.975 E48.5378
G1 X169.502 Y85.482 E48.55797
G1 X169.766 Y86.028 E48.57815
G1 X169.955 Y86.604 E48.59831
G1 X170.067 Y87.2 E48.61848
G1 X170.1 Y87.75 E48.6368
G1 X170.1 Y122.25 E49.78428
G1 X170.06 Y122.855 E49.80445
G1 X169.941 Y123.449 E49.82459
G1 X169.745 Y124.023 E49.84477
G1 X169.474 Y124.566 E49.86495
G1 X169.135 Y125.069 E49.88513
